X:1
T:Title
%%score { ( 1 4 ) | ( 2 3 ) }
L:1/8
M:9/8
K:C
V:1 treble nm="Grand Piano"
V:4 treble 
V:2 bass 
V:3 bass 
V:1
 z3 z3[Q:1/4=110] GAB | c3- cGG FED | C6 [^G,DE][^F,D^F][D^G] | [CA]3- [CA][CE][CA] [Ec][EB][EA] | %4
 [EB]6 [EB][EB][EB] | [^Ge]3- [Ge]Bc dcB |[M:3/4] c6 |[M:3/8] dcA |[M:9/8] z3 z3 B3 | [Ec]6 z3 | %10
 B6 z3 | D6 z3 | .B6 z3 | z2 C C3 EAB | .c6 z3 | c6 z3 | .d6 z3 | d6 z3 | B6 z3 | D6 z3 | .B6 z3 | %21
 z2 C C3 EAB | .c6 z3 | c6 z3 | .d6 z3 |[M:3/4] G6 |[M:3/8] GAB |[M:9/8] c3- cGG FED | %28
 C6 [^G,DE][^F,D^F][D^G] | [CA]3- [CA][CE][CA] [Ec][EB][EA] | [EB]6 [EB][EB][EB] | %31
 [^Ge]3- [Ge]Bc dcB |[M:3/4] c6 |[M:3/8] dcA |[M:9/8] z3 z3 B3 | %35
[M:17/8] [Ec]-[Ec]-[Ec]- [Ec]3 z z z z z z z z z z2 |] %36
V:2
 z3 z3 G,A,B, | C3- CG,G, F,E,D, | z3 .E,3 B,,B,,[B,,E,] | %3
 [A,,E,]3- [A,,E,][A,,A,][A,,A,] [A,,A,][B,,G,][C,A,] | [E,^G,]6 [E,G,][D,G,][E,G,] | %5
 [E,B,]3- [E,B,][E,^G,E][E,A,E] [E,B,E][E,A,E][E,G,E] |[M:3/4] E3- [G,E]3 | %7
[M:3/8] [F,A,F][F,A,F][F,CF] |[M:9/8] [G,C]3 z3 z3 | [C,G,]6 z3 | %10
 .G,,2 [D,G,] .[D,G,]3 .[D,G,B,]3 | .G,,2 [D,G,] .[D,G,]3 .[D,G,]3 | %12
 .E,,2 [E,^G,] .[E,G,]3 .[E,G,D]3 | [A,C]2 A, A,3 z3 | .A,,2 [E,A,] .[E,A,]3 .[E,A,C]3 | %15
 .A,,2 [E,A,] .[E,A,]3 .[E,A,]3 | .D,,2 [D,^F,] .[D,F,]3 .[D,F,C]3 | %17
 .G,,2 [D,G,] .[D,G,]3 .[D,G,B,]3 | .G,,2 [D,G,] .[D,G,]3 .[D,G,B,]3 | %19
 .G,,2 [D,G,] .[D,G,]3 .[D,G,]3 | .E,,2 [E,^G,] .[E,G,]3 .[E,G,D]3 | [A,C]2 A, A,3 z3 | %22
 .A,,2 [E,A,] .[E,A,]3 .[E,A,C]3 | .A,,2 [E,A,] .[E,A,]3 .[E,A,]3 | %24
 .D,,2 [D,^F,] .[D,F,]3 .[D,F,C]3 |[M:3/4] [G,B,]6 |[M:3/8] G,A,B, |[M:9/8] C3- CG,G, F,E,D, | %28
 z3 .E,3 B,,B,,[B,,E,] | [A,,E,]3- [A,,E,][A,,A,][A,,A,] [A,,A,][B,,G,][C,A,] | %30
 [E,^G,]6 [E,G,][D,G,][E,G,] | [E,B,]3- [E,B,][E,^G,E][E,A,E] [E,B,E][E,A,E][E,G,E] | %32
[M:3/4] E3- [G,E]3 |[M:3/8] [F,A,F][F,A,F][F,CF] |[M:9/8] [G,C]3 z3 z3 | %35
[M:17/8] [C,G,]-[C,G,]-[C,G,]- [C,G,]3 z z z z z z z z z z2 |] %36
V:3
 x9 | x9 | C,6 z3 | x9 | x9 | x9 |[M:3/4] A,4 z2 |[M:3/8] x3 |[M:9/8] E3- [G,E]3 [G,,G,]3 | x9 | %10
 x9 | x9 | x9 | x9 | x9 | x9 | x9 | x9 | x9 | x9 | x9 | x9 | x9 | x9 | x9 |[M:3/4] x6 |[M:3/8] x3 | %27
[M:9/8] x9 | C,6 z3 | x9 | x9 | x9 |[M:3/4] A,4 z2 |[M:3/8] x3 |[M:9/8] E3- [G,E]3 [G,,G,]3 | %35
[M:17/8] x17 |] %36
V:4
 x9 | x9 | x9 | x9 | x9 | x9 |[M:3/4] z2 z ._B,3 |[M:3/8] x3 |[M:9/8] G3 c3 D2 F | x9 | %10
 z2 B, .B,2 B B_B=B | z2 B, .B,3 .B,3 | z2 D D_B=B c2 B | E6 z3 | z2 C CEE EAB | z2 C .C3 .C3 | %16
 z2 C CAA d2 e | z2 B, B,DE ^FGA | z2 B, .B,2 B B_B=B | z2 B, .B,3 .B,3 | z2 D D_B=B c2 B | E6 z3 | %22
 z2 C CEE EAB | z2 C .C3 .C3 | z2 C Ced c2 A |[M:3/4] x6 |[M:3/8] x3 |[M:9/8] x9 | x9 | x9 | x9 | %31
 x9 |[M:3/4] z2 z ._B,3 |[M:3/8] x3 |[M:9/8] G3 c3 D2 F |[M:17/8] x17 |] %36

